src/assets/images/cloud.svg

<svg fill="none" height="24" viewBox="0 0 24 24" width="24" xmlns="http://www.w3.org/2000/svg" xmlns:xlink="http://www.w3.org/1999/xlink"><clipPath id="a"><path d="m0 0h24v24h-24z"/></clipPath><g clip-path="url(#a)"><path clip-rule="evenodd" d="m5.00035 10.416c.01806-1.51609.56554-2.97815 1.5477-4.1332s2.3372-1.93043 3.83065-2.19195c1.4934-.26153 3.0313.00725 4.3475.75982 1.3163.75258 2.328 1.94159 2.8601 3.36131 1.3993.38589 2.6114 1.26582 3.4117 2.47682s1.1346 2.6709.9411 4.1095c-.1936 1.4386-.9019 2.7583-1.9938 3.7147s-2.4934 1.4846-3.945 1.487h-8.99995c-1.14929.0007-2.26375-.3945-3.15581-1.1191s-1.50725-1.7345-1.74202-2.8595c-.23478-1.1251-.07481-2.2967.45298-3.3176s1.39118-1.8289 2.44485-2.2878z" fill="#fff" fill-rule="evenodd"/></g></svg>

<svg width="24" height="24" viewBox="0 0 24 24" fill="none" xmlns="http://www.w3.org/2000/svg">
<g clip-path="url(#clip0_153_657)">
<path fill-rule="evenodd" clip-rule="evenodd" d="M5.00035 10.416C5.01841 8.89991 5.56589 7.43785 6.54805 6.2828C7.53021 5.12775 8.88525 4.35237 10.3787 4.09085C11.8721 3.82932 13.41 4.0981 14.7262 4.85067C16.0425 5.60325 17.0542 6.79226 17.5863 8.21198C18.9856 8.59787 20.1977 9.4778 20.998 10.6888C21.7983 11.8998 22.1326 13.3597 21.9391 14.7983C21.7455 16.2369 21.0372 17.5566 19.9453 18.513C18.8534 19.4694 17.4519 19.9976 16.0003 20H7.00035C5.85106 20.0007 4.7366 19.6055 3.84454 18.8809C2.95248 18.1563 2.33729 17.1464 2.10252 16.0214C1.86774 14.8963 2.02771 13.7247 2.5555 12.7038C3.08329 11.6829 3.94668 10.8749 5.00035 10.416Z" fill="white"/>
</g>
<defs>
<clipPath id="clip0_153_657">
<rect width="24" height="24" fill="white"/>
</clipPath>
</defs>
</svg>
